icons/folder-app.svg

<svg clip-rule="evenodd" fill-rule="evenodd" stroke-linejoin="round" stroke-miterlimit="1.414" version="1.1" viewBox="0 0 24 24" xmlns="http://www.w3.org/2000/svg"><path d="M10 4H4c-1.11 0-2 .89-2 2v12c0 1.097.903 2 2 2h16c1.097 0 2-.903 2-2V8a2 2 0 0 0-2-2h-8l-2-2z" fill="#FFB300" fill-rule="nonzero" style="fill:#45403d"/><path d="m11.375 11.618h3.0812v-3.0812h-3.0812zm4.6219 9.2438h3.0812v-3.0812h-3.0812zm-4.6219 0h3.0812v-3.0812h-3.0812zm0-4.6219h3.0812v-3.0812h-3.0812zm4.6219 0h3.0812v-3.0812h-3.0812zm4.6219-7.7031v3.0812h3.0812v-3.0812zm-4.6219 3.0812h3.0812v-3.0812h-3.0812zm4.6219 4.6219h3.0812v-3.0812h-3.0812zm0 4.6219h3.0812v-3.0812h-3.0812z" style="fill:#ea6962;stroke-width:.94808"/></svg>

<svg clip-rule="evenodd" fill-rule="evenodd" stroke-linejoin="round" stroke-miterlimit="1.414" viewBox="0 0 24 24" xmlns="http://www.w3.org/2000/svg"><path d="M10 4H4c-1.11 0-2 .89-2 2v12c0 1.097.903 2 2 2h16c1.097 0 2-.903 2-2V8a2 2 0 0 0-2-2h-8l-2-2z" fill="#FFB300" fill-rule="nonzero" style="fill:#ef5350"/><path d="M11.375 11.618h3.081V8.537h-3.081zm4.622 9.244h3.081V17.78h-3.081zm-4.622 0h3.081V17.78h-3.081zm0-4.622h3.081v-3.081h-3.081zm4.622 0h3.081v-3.081h-3.081zm4.622-7.703v3.081H23.7V8.537zm-4.622 3.081h3.081V8.537h-3.081zm4.622 4.622H23.7v-3.081h-3.081zm0 4.622H23.7V17.78h-3.081z" style="fill:#ffcdd2;stroke-width:.94808"/></svg>
